X: 122
M:2/4
L:1/16
K:D
uA2|"0"D"0"AFA DAFA|BcdB BAFA|\
"0"D"0"AFA DAFA|A,ECE A,ECE|
"0"D"0"AFA DAFA|BcdB BAFA|\
|fgaf bgec|d2d2d2:|
|:uA2|d"0"efe dcBA|Bcdc BAGF|.E2.E2 "4"edcB|Acec dBA^G|


